X:1
T:Swallowtail (Jig), The
R: jig
M:6/8
L:1/8
O:Trad. (14.2.2015/NS)
K:Dmaj
|: "Em" GEE BEE | GEE BAG | "D" FDD ADD |      dcd     AGF |
   "Em" GEE BEE | GEE B2c | "D" dcd AGF | "Em" GEE     E3 :|
|: "Em" Bcd e2f | e2f edc |     Bcd e2f | "Em" edc "D" d2c |
   "Em" Bcd e2f | e2f edc | "D" dcd AGF | "Em" GEE     E3 :|
